sticker-text.svg

<svg fill="currentColor" viewBox="0 0 24 24"><path d="M18.5 2h-13C3.6 2 2 3.6 2 5.5v13C2 20.4 3.6 22 5.5 22H16l6-6V5.5C22 3.6 20.4 2 18.5 2M6 7h12v2H6zm0 4h12v2H6zm7 6H6v-2h7zm2 3v-1.5c0-1.9 1.6-3.5 3.5-3.5H20z"/></svg>

<svg  viewBox="0 0 24 24" fill="currentColor"><path  d="M18.5 2H5.5C3.6 2 2 3.6 2 5.5V18.5C2 20.4 3.6 22 5.5 22H16L22 16V5.5C22 3.6 20.4 2 18.5 2M6 7H18V9H6V7M6 11H18V13H6V11M13 17H6V15H13V17M15 20V18.5C15 16.6 16.6 15 18.5 15H20L15 20Z"/></svg>
